X: 34
T: JIG: Connaughtman's Rambles
C: C: Trad.; S: ThZCh; Various
C: Set Leaders: Oliushka, Anton
Z: Anton Zille ed.; JACKB at The Session
N: https://thesession.org/members/26966/sets/71901
R: Jig
M: 6/8
L: 1/8
Q: 3/8=116
K: Dmaj
|:FAA dAA|BAB dAG|FAA dfe|dBB BAG|
FAA dAA|~B3 def|gfe f2e|1 dBB BAG:|2 dBB B2e||
|:fbb faf|fed ede|fbb faf|fed e2e|
fbb faf|fed def|gfe ~f2e|1 dBB Bde:|2 dBB BAG||

